X: 15093
T: Get Your Crap Off The Stage
R: jig
M: 6/8
K: Aminor
|:agf edc|agf edc|agf edc|ABc d2e|
agf edc|agf edc|agf edc|1 ABc A2e:|2 ABc A2c||
|:B2E EEE|c2E EEE|d2d c2c|ABc A2c|
B2E EEE|c2E EEE|d2d c2c|1 ABc A2c:|2 ABc A2e||

